X:1
T:Title
L:1/8
Q:1/4=124
M:6/8
K:F
V:1 treble nm="Church Organ, Staff"
V:1
 GAB GAB | G A2- A/ z/ fe- | edc- c/ z/ dA- | ABc- c2 c- | cGA BGA | BGA- A/ z/ cf- | %6
w: By~Mr.~Arthur~Henry~Brown * * * * *||||||
 fed- d/ z/ dc- | c=Bc- c/ z/ CE- | EGA- A3/2 z/ =B- | B2 c- c2 c | c A2 B G2 | c A2 B G2 | %12
w: ||||||
 D G2 B A2 | G d2- d d2 | d _e2 B B2 | c d2 B F2 | G G2 A B2 | c F2 f d2 | B G2- G/ z/ A2- | %19
w: |||||||
 A B2- B .B2 | z AG F B2- | BAG F B2- | BAG F c2 | f e2 d c2 | z AG F B2- | BAG F f2- | f F2 GAB | %27
w: ||||||||
 c d2- d/ z/ c2- | c A2- A .A2 |] %29
w: ||

